assets/svgs/gbc.svg

<?xml version="1.0" encoding="UTF-8" standalone="no"?>
<svg
   xmlns:dc="http://purl.org/dc/elements/1.1/"
   xmlns:cc="http://creativecommons.org/ns#"
   xmlns:rdf="http://www.w3.org/1999/02/22-rdf-syntax-ns#"
   xmlns:svg="http://www.w3.org/2000/svg"
   xmlns="http://www.w3.org/2000/svg"
   xmlns:sodipodi="http://sodipodi.sourceforge.net/DTD/sodipodi-0.dtd"
   xmlns:inkscape="http://www.inkscape.org/namespaces/inkscape"
   id="svg2"
   version="1.1"
   sodipodi:docname="gbc.svg"
   width="264"
   height="73.000038"
   inkscape:version="0.92.5 (2060ec1f9f, 2020-04-08)">
  <metadata
     id="metadata19">
    <rdf:RDF>
      <cc:Work
         rdf:about="">
        <dc:format>image/svg+xml</dc:format>
        <dc:type
           rdf:resource="http://purl.org/dc/dcmitype/StillImage" />
      </cc:Work>
    </rdf:RDF>
  </metadata>
  <defs
     id="defs17" />
  <sodipodi:namedview
     pagecolor="#ffffff"
     bordercolor="#666666"
     borderopacity="1"
     objecttolerance="10"
     gridtolerance="10"
     guidetolerance="10"
     inkscape:pageopacity="0"
     inkscape:pageshadow="2"
     inkscape:window-width="532"
     inkscape:window-height="460"
     id="namedview15"
     showgrid="false"
     inkscape:zoom="2.36"
     inkscape:cx="49.999672"
     inkscape:cy="22.999504"
     inkscape:window-x="72"
     inkscape:window-y="27"
     inkscape:window-maximized="0"
     inkscape:current-layer="svg2" />
  <g
     transform="matrix(0.880001,0,0,0.875297,-2.8857383e-4,4.6938106e-4)"
     id="g12">
    <path
       id="path5256"
       d="m 144.397,67.576 c -0.482,-1.463 -1.758,-2.857 -1.758,-2.857 0,0 -1.915,-2.486 -5.679,-3.336 -3.223,-0.674 -5.754,0.747 -5.754,0.747 0,0 -2.299,0.921 -4.027,2.826 -2.752,2.648 -3.544,6.515 -3.544,6.515 0,0 -1.055,3.366 0.616,6.033 l 1.815,2.196 c 2.563,2.138 5.301,2.355 5.301,2.355 0,0 2.21,0.499 4.789,-0.173 2.254,-0.456 3.894,-1.569 3.894,-1.569 0,0 3.733,-2.064 4.758,-6.279 z m -5.815,7.012 c 0,0 -1.492,2.607 -4.771,2.298 -3.851,-0.394 -4.304,-3.776 -4.304,-3.776 0,0 -0.528,-2.489 1.844,-4.657 2.402,-2.018 4.906,-1.712 4.906,-1.712 0,0 1.682,0.16 2.548,2.943 1.112,3.543 -0.223,4.904 -0.223,4.904"
       style="fill:#ffffff;fill-opacity:1"
       inkscape:connector-curvature="0" />
    <path
       id="path5262"
       d="m 156.841,74.632 c -1.232,-0.271 -3.207,0.234 -3.207,0.234 0,0 -2.751,1.01 -3.176,0.995 -0.162,-0.233 -0.511,-4.729 -0.411,-6.529 0.06,-3.177 -0.206,-5.769 -0.206,-5.769 0,0 -0.131,-3.061 -1.771,-4.875 -1.932,-1.948 -3.28,-1.112 -4.055,-0.646 -1.86,1.671 -0.995,3.704 -0.995,3.704 l 0.966,2.74 c 0,0 0.468,1.171 0.411,3.088 l 0.409,6.458 c 0,0.864 0.703,6.677 0.703,6.677 0,0 0.072,1.889 1.888,2.225 1.861,0.308 3.69,-0.616 4.466,-0.983 0.776,-0.364 1.801,-0.686 1.801,-0.686 0,0 0.849,-0.191 1.698,-0.263 1.992,-0.192 2.708,-0.541 2.708,-0.541 0,0 0.77,-0.117 1.29,-0.851 0.518,-0.733 1.144,-4.171 -2.519,-4.978"
       style="fill:#ffffff;fill-opacity:1"
       inkscape:connector-curvature="0" />
    <path
       id="path5264"
       d="m 124.251,77.501 c -1.31,-0.391 -2.81,-0.13 -2.81,-0.13 0,0 -4.247,0.409 -6.458,-0.059 -3.425,-0.6 -3.311,-4.29 -3.311,-4.29 0,0 -0.114,-2.447 1.949,-5.755 2.548,-4.085 5.36,-4.817 5.36,-4.817 0,0 0.7,-0.263 1.36,0.088 0.41,2.37 2.707,2.355 2.707,2.355 0,0 3.312,0.222 3.148,-3.79 -0.38,-3.295 -3.556,-3.747 -4.889,-4.056 -3.995,-0.718 -6.59,1.421 -6.59,1.421 0,0 -2.678,1.448 -5.884,6.499 -2.184,3.133 -2.447,5.595 -2.447,5.595 0,0 -0.262,0.584 -0.161,3.192 -0.057,2.034 0.705,3.513 0.705,3.513 0,0 1.156,3.502 4.817,4.936 2.225,0.922 5.475,0.908 5.475,0.908 0,0 3.148,-0.045 5.563,-0.176 1.319,0.102 1.948,-0.587 1.948,-0.587 0,0 1.477,-0.966 1.332,-2.65 0,0 -0.286,-1.739 -1.814,-2.197"
       style="fill:#ffffff;fill-opacity:1"
       inkscape:connector-curvature="0" />
    <path
       id="path5258"
       d="m 177.442,66.799 c -2.56,-4.186 -7.071,-4.816 -7.071,-4.816 0,0 -1.435,-0.485 -4.509,-0.076 -5.768,1.1 -7.775,5.536 -7.775,5.536 0,0 -2.065,3.25 -1.245,7.189 l 2.521,4.978 c 1.859,1.743 2.62,1.743 2.736,1.847 2.461,1.112 5.315,0.468 5.315,0.468 0,0 3.604,-0.352 6.898,-2.915 2.634,-1.932 3.777,-4.772 3.777,-4.772 l 0.349,-3.812 z m -7.011,8.549 c -4.143,2.491 -6.752,-0.233 -6.752,-0.233 0,0 -1.156,-0.762 -1.406,-3.075 -0.177,-2.679 2.491,-4.07 2.491,-4.07 0,0 1.405,-0.865 3.162,-0.732 1.756,0.131 2.311,0.015 3.734,1.07 1.345,1.214 1.257,2.106 1.257,2.106 0,0 0.484,3.018 -2.486,4.934"
       style="fill:#ffffff;fill-opacity:1"
       inkscape:connector-curvature="0" />
    <path
       id="path5260"
       d="m 178.087,74.238 c 0,0 0.088,2.342 -0.278,2.914 -0.498,1.068 -0.424,2.106 -0.424,2.106 0,0 -0.339,3.164 3.325,3.689 2.515,-0.013 2.823,-2.108 2.867,-3.001 0.145,-0.702 0.088,-3.967 0.088,-3.967 l 3.266,2.664 c 0,0 2.371,1.991 3.764,3.147 1.449,1.142 1.814,1.348 1.814,1.348 0,0 0.308,0.365 1.42,0.233 0.895,0.016 1.715,-0.791 1.715,-0.791 0,0 1.037,-0.759 1.301,-2.093 0.321,-1.581 -0.908,-2.357 -0.908,-2.357 0,0 -4.537,-3.661 -7.611,-6.179 2.062,-1.128 3.058,-1.902 3.058,-1.902 0,0 2.872,-1.904 3.485,-4.818 0.851,-3.208 -1.566,-4.466 -1.566,-4.466 0,0 -1.509,-1.083 -2.781,-1.655 -3.208,-1.566 -6.194,-1.245 -6.194,-1.245 0,0 -4.246,-0.292 -7.012,3.121 -1.275,1.653 -0.483,3.821 -0.483,3.821 0,0 0.157,0.347 0.512,1.99 0.709,3.309 0.642,7.441 0.642,7.441 z m 5.564,-6.502 -0.278,-3.821 c 0,0 2.679,-0.059 3.792,0.132 2.197,0.335 2.078,0.952 2.078,0.952 0,0 -0.073,0.776 -1.741,1.537 -1.814,0.878 -3.851,1.2 -3.851,1.2"
       style="fill:#ffffff;fill-opacity:1"
       inkscape:connector-curvature="0" />
    <path
       d="M 286.97198,0.48400003 H 300 L 281.633,29.056999 278.65399,51.348 H 266.88 L 270.33099,25.913 258.55701,0.48400003 H 271.272 L 277.55399,14.929 Z"
       id="_43443024"
       style="fill:#ffffff"
       inkscape:connector-curvature="0" />
    <path
       d="M 149.77299,31.253 H 165.31 l 1.571,-11.302 h -15.38201 l 1.10102,-8.165 H 170.491 l 1.72999,-11.30199997 h -29.67 L 135.487,51.348 h 29.511 l 1.56999,-11.307 H 148.673 Z"
       id="_43441624"
       style="fill:#ffffff"
       inkscape:connector-curvature="0" />
    <path
       id="_43775888"
       d="m 59.352,26.227 3.925,-10.517 1.257,10.517 h -5.181 z m -4.238,10.047 h 10.673 l 1.886,15.07 H 86.98 l 8.949,-27.629 4.396,27.629 h 10.205 l 11.302,-29.198 1.884,29.198 h 11.301 L 131.878,0.482 H 118.377 L 107.858,27.325 103.776,0.482 H 91.689 L 77.874,42.239 72.694,0.482 H 57.624 L 40.826,42.708 43.024,26.227 H 22.614 L 21.2,36.272 h 8.949 l -0.629,3.454 c -1.569,0.941 -5.179,1.099 -6.592,1.099 -1.412,0 -11.93,-0.941 -11.46,-12.245 C 11.936,17.279 27.005,6.761 44.901,12.569 L 46.629,1.737 C 34.698,-2.343 3.363,-0.059 0.161,27.952 -1.721,44.436 13.35,52.285 23.395,52.13 c 5.808,0.314 12.403,-1.884 14.756,-3.141 l -0.784,2.355 h 11.931 l 5.808,-15.07 z"
       style="fill:#ffffff"
       inkscape:connector-curvature="0" />
    <path
       id="_44102912"
       d="m 245.841,0.014 c -8.163,-0.315 -19.937,4.395 -23.861,23.39 -3.924,18.993 6.592,26.686 16.326,27.943 9.733,1.255 23.391,-4.867 25.901,-23.076 C 266.722,10.06 257.768,0.485 245.841,0.014 Z m -1.253,10.832 c 3.296,0 10.359,2.198 8.632,15.382 -1.726,13.187 -9.889,14.757 -12.871,14.444 -2.985,-0.316 -9.106,-2.355 -7.379,-14.444 1.73,-12.085 8.165,-15.54 11.621,-15.382 z"
       style="fill:#ffffff"
       inkscape:connector-curvature="0" />
    <path
       id="_44104296"
       d="m 196.234,19.951 h 6.594 c 4.865,0 5.808,-3.14 5.963,-4.395 0.157,-1.256 -1.255,-3.768 -3.765,-3.768 h -7.692 l -1.096,8.163 z m -2.826,20.093 h 8.949 c 4.865,0 5.964,-3.767 6.121,-5.024 0.157,-1.255 -1.256,-3.767 -3.767,-3.767 h -10.046 l -1.255,8.791 z m -13.182,11.303 7.065,-50.862 h 21.662 c 5.182,0 12.716,5.967 11.775,13.971 -0.942,8.007 -3.454,8.479 -5.181,9.734 2.67,2.353 5.337,6.12 4.239,13.185 -1.1,7.066 -6.908,13.972 -17.11,13.972 h -22.449 z"
       style="fill:#ffffff"
       inkscape:connector-curvature="0" />
  </g>
</svg>

<?xml version="1.0" encoding="utf-8"?>
<svg id="svg2" version="1.1" viewBox="0 0 264 73" xmlns="http://www.w3.org/2000/svg">
  <g transform="matrix(0.880001, 0, 0, 0.875297, 0.000039, -0.000067)">
    <path id="path5256" d="M 144.397 67.576 C 143.915 66.113 142.639 64.719 142.639 64.719 C 142.639 64.719 140.724 62.233 136.96 61.383 C 133.737 60.709 131.206 62.13 131.206 62.13 C 131.206 62.13 128.907 63.051 127.179 64.956 C 124.427 67.604 123.635 71.471 123.635 71.471 C 123.635 71.471 122.58 74.837 124.251 77.504 L 126.066 79.7 C 128.629 81.838 131.367 82.055 131.367 82.055 C 131.367 82.055 133.577 82.554 136.156 81.882 C 138.41 81.426 140.05 80.313 140.05 80.313 C 140.05 80.313 143.783 78.249 144.808 74.034 L 144.397 67.576 Z M 138.582 74.588 C 138.582 74.588 137.09 77.195 133.811 76.886 C 129.96 76.492 129.507 73.11 129.507 73.11 C 129.507 73.11 128.979 70.621 131.351 68.453 C 133.753 66.435 136.257 66.741 136.257 66.741 C 136.257 66.741 137.939 66.901 138.805 69.684 C 139.917 73.227 138.582 74.588 138.582 74.588" style="fill-opacity: 1; fill: rgb(255, 255, 255);"/>
    <path id="path5262" d="M 156.841 74.632 C 155.609 74.361 153.634 74.866 153.634 74.866 C 153.634 74.866 150.883 75.876 150.458 75.861 C 150.296 75.628 149.947 71.132 150.047 69.332 C 150.107 66.155 149.841 63.563 149.841 63.563 C 149.841 63.563 149.71 60.502 148.07 58.688 C 146.138 56.74 144.79 57.576 144.015 58.042 C 142.155 59.713 143.02 61.746 143.02 61.746 L 143.986 64.486 C 143.986 64.486 144.454 65.657 144.397 67.574 L 144.806 74.032 C 144.806 74.896 145.509 80.709 145.509 80.709 C 145.509 80.709 145.581 82.598 147.397 82.934 C 149.258 83.242 151.087 82.318 151.863 81.951 C 152.639 81.587 153.664 81.265 153.664 81.265 C 153.664 81.265 154.513 81.074 155.362 81.002 C 157.354 80.81 158.07 80.461 158.07 80.461 C 158.07 80.461 158.84 80.344 159.36 79.61 C 159.878 78.877 160.504 75.439 156.841 74.632" style="fill-opacity: 1; fill: rgb(255, 255, 255);"/>
    <path id="path5264" d="M 124.251 77.501 C 122.941 77.11 121.441 77.371 121.441 77.371 C 121.441 77.371 117.194 77.78 114.983 77.312 C 111.558 76.712 111.672 73.022 111.672 73.022 C 111.672 73.022 111.558 70.575 113.621 67.267 C 116.169 63.182 118.981 62.45 118.981 62.45 C 118.981 62.45 119.681 62.187 120.341 62.538 C 120.751 64.908 123.048 64.893 123.048 64.893 C 123.048 64.893 126.36 65.115 126.196 61.103 C 125.816 57.808 122.64 57.356 121.307 57.047 C 117.312 56.329 114.717 58.468 114.717 58.468 C 114.717 58.468 112.039 59.916 108.833 64.967 C 106.649 68.1 106.386 70.562 106.386 70.562 C 106.386 70.562 106.124 71.146 106.225 73.754 C 106.168 75.788 106.93 77.267 106.93 77.267 C 106.93 77.267 108.086 80.769 111.747 82.203 C 113.972 83.125 117.222 83.111 117.222 83.111 C 117.222 83.111 120.37 83.066 122.785 82.935 C 124.104 83.037 124.733 82.348 124.733 82.348 C 124.733 82.348 126.21 81.382 126.065 79.698 C 126.065 79.698 125.779 77.959 124.251 77.501" style="fill-opacity: 1; fill: rgb(255, 255, 255);"/>
    <path id="path5258" d="M 177.442 66.799 C 174.882 62.613 170.371 61.983 170.371 61.983 C 170.371 61.983 168.936 61.498 165.862 61.907 C 160.094 63.007 158.087 67.443 158.087 67.443 C 158.087 67.443 156.022 70.693 156.842 74.632 L 159.363 79.61 C 161.222 81.353 161.983 81.353 162.099 81.457 C 164.56 82.569 167.414 81.925 167.414 81.925 C 167.414 81.925 171.018 81.573 174.312 79.01 C 176.946 77.078 178.089 74.238 178.089 74.238 L 178.438 70.426 L 177.442 66.799 L 177.442 66.799 Z M 170.431 75.348 C 166.288 77.839 163.679 75.115 163.679 75.115 C 163.679 75.115 162.523 74.353 162.273 72.04 C 162.096 69.361 164.764 67.97 164.764 67.97 C 164.764 67.97 166.169 67.105 167.926 67.238 C 169.682 67.369 170.237 67.253 171.66 68.308 C 173.005 69.522 172.917 70.414 172.917 70.414 C 172.917 70.414 173.401 73.432 170.431 75.348" style="fill-opacity: 1; fill: rgb(255, 255, 255);"/>
    <path id="path5260" d="M 178.087 74.238 C 178.087 74.238 178.175 76.58 177.809 77.152 C 177.311 78.22 177.385 79.258 177.385 79.258 C 177.385 79.258 177.046 82.422 180.71 82.947 C 183.225 82.934 183.533 80.839 183.577 79.946 C 183.722 79.244 183.665 75.979 183.665 75.979 L 186.931 78.643 C 186.931 78.643 189.302 80.634 190.695 81.79 C 192.144 82.932 192.509 83.138 192.509 83.138 C 192.509 83.138 192.817 83.503 193.929 83.371 C 194.824 83.387 195.644 82.58 195.644 82.58 C 195.644 82.58 196.681 81.821 196.945 80.487 C 197.266 78.906 196.037 78.13 196.037 78.13 C 196.037 78.13 191.5 74.469 188.426 71.951 C 190.488 70.823 191.484 70.049 191.484 70.049 C 191.484 70.049 194.356 68.145 194.969 65.231 C 195.82 62.023 193.403 60.765 193.403 60.765 C 193.403 60.765 191.894 59.682 190.622 59.11 C 187.414 57.544 184.428 57.865 184.428 57.865 C 184.428 57.865 180.182 57.573 177.416 60.986 C 176.141 62.639 176.933 64.807 176.933 64.807 C 176.933 64.807 177.09 65.154 177.445 66.797 C 178.154 70.106 178.087 74.238 178.087 74.238 L 178.087 74.238 Z M 183.651 67.736 L 183.373 63.915 C 183.373 63.915 186.052 63.856 187.165 64.047 C 189.362 64.382 189.243 64.999 189.243 64.999 C 189.243 64.999 189.17 65.775 187.502 66.536 C 185.688 67.414 183.651 67.736 183.651 67.736" style="fill-opacity: 1; fill: rgb(255, 255, 255);"/>
    <path d="M 286.97198486328125 0.484000027179718 L 300 0.484000027179718 L 281.63299560546875 29.05699920654297 L 278.65399169921875 51.347999572753906 L 266.8800048828125 51.347999572753906 L 270.33099365234375 25.913000106811523 L 258.5570068359375 0.484000027179718 L 271.2720031738281 0.484000027179718 L 277.5539855957031 14.928999900817871 Z" id="_43443024" style="fill: rgb(255, 255, 255);"/>
    <path d="M 149.7729949951172 31.253000259399414 L 165.30999755859375 31.253000259399414 L 166.88099670410156 19.951000213623047 L 151.49899291992188 19.951000213623047 L 152.60000610351562 11.78600025177002 L 170.49099731445312 11.78600025177002 L 172.2209930419922 0.484000027179718 L 142.55099487304688 0.484000027179718 L 135.48699951171875 51.347999572753906 L 164.9980010986328 51.347999572753906 L 166.5679931640625 40.04100036621094 L 148.67300415039062 40.04100036621094 Z" id="_43441624" style="fill: rgb(255, 255, 255);"/>
    <path id="_43775888" d="M 59.352 26.227 L 63.277 15.71 L 64.534 26.227 L 59.353 26.227 Z M 55.114 36.274 L 65.787 36.274 L 67.673 51.344 L 86.98 51.344 L 95.929 23.715 L 100.325 51.344 L 110.53 51.344 L 121.832 22.146 L 123.716 51.344 L 135.017 51.344 L 131.878 0.482 L 118.377 0.482 L 107.858 27.325 L 103.776 0.482 L 91.689 0.482 L 77.874 42.239 L 72.694 0.482 L 57.624 0.482 L 40.826 42.708 L 43.024 26.227 L 22.614 26.227 L 21.2 36.272 L 30.149 36.272 L 29.52 39.726 C 27.951 40.667 24.341 40.825 22.928 40.825 C 21.516 40.825 10.998 39.884 11.468 28.58 C 11.936 17.279 27.005 6.761 44.901 12.569 L 46.629 1.737 C 34.698 -2.343 3.363 -0.059 0.161 27.952 C -1.721 44.436 13.35 52.285 23.395 52.13 C 29.203 52.444 35.798 50.246 38.151 48.989 L 37.367 51.344 L 49.298 51.344 L 55.106 36.274 Z" style="fill: rgb(255, 255, 255);"/>
    <path id="_44102912" d="M 245.841 0.014 C 237.678 -0.301 225.904 4.409 221.98 23.404 C 218.056 42.397 228.572 50.09 238.306 51.347 C 248.039 52.602 261.697 46.48 264.207 28.271 C 266.722 10.06 257.768 0.485 245.841 0.014 Z M 244.588 10.846 C 247.884 10.846 254.947 13.044 253.22 26.228 C 251.494 39.415 243.331 40.985 240.349 40.672 C 237.364 40.356 231.243 38.317 232.97 26.228 C 234.7 14.143 241.135 10.688 244.591 10.846 Z" style="fill: rgb(255, 255, 255);"/>
    <path id="_44104296" d="M 196.234 19.951 L 202.828 19.951 C 207.693 19.951 208.636 16.811 208.791 15.556 C 208.948 14.3 207.536 11.788 205.026 11.788 L 197.334 11.788 L 196.238 19.951 Z M 193.408 40.044 L 202.357 40.044 C 207.222 40.044 208.321 36.277 208.478 35.02 C 208.635 33.765 207.222 31.253 204.711 31.253 L 194.665 31.253 L 193.41 40.044 Z M 180.226 51.347 L 187.291 0.485 L 208.953 0.485 C 214.135 0.485 221.669 6.452 220.728 14.456 C 219.786 22.463 217.274 22.935 215.547 24.19 C 218.217 26.543 220.884 30.31 219.786 37.375 C 218.686 44.441 212.878 51.347 202.676 51.347 L 180.227 51.347 Z" style="fill: rgb(255, 255, 255);"/>
  </g>
</svg>
